packages/web-icons/svgs/timer.svg

<svg viewBox="0 0 48 48" xmlns="http://www.w3.org/2000/svg" class="ridi_icon"><path d="M18.7 22c-.2.6-.4 1.3-.4 2 0 3.1 2.5 5.6 5.6 5.6 3.1 0 5.6-2.5 5.6-5.6 0-3.1-2.5-5.6-5.6-5.6L12.7 5s-2.5-2.4-4.2-1.4c-1.4 1.1-.6 3 .3 4.3L18.7 22zM24 0c-1 0-1.8.1-3 .2h-.4c-1.8 0-3.2 1.4-3.2 3.2 0 1.8 1.4 3.2 3.2 3.2h.1c1-.2 2.1-.2 3.2-.2 9.7 0 17.5 7.8 17.5 17.5S33.7 41.5 24 41.5 6.5 33.7 6.5 24c0-2.7.6-5.3 1.7-7.6.2-.4.2-.8.2-1.3 0-1.8-1.4-3.2-3.2-3.2-1.2 0-2.2.6-2.7 1.5v.1c-.2.2-.3.3-.3.5C.8 17.1 0 20.4 0 24c0 13.3 10.7 24 24 24s24-10.7 24-24S37.3 0 24 0z"/></svg>

<?xml version="1.0" encoding="UTF-8"?>
<svg width="48px" height="48px" viewBox="0 0 48 48" version="1.1" xmlns="http://www.w3.org/2000/svg">
  <!-- Generator: Sketch 41.2 (35397) - http://www.bohemiancoding.com/sketch -->
  <title>timer</title>
  <desc>Created with Sketch.</desc>
  <defs></defs>
  <g id="Page-1" stroke="none" stroke-width="1" fill="none" fill-rule="evenodd">
    <g id="timer" fill="#000000">
      <g id="레이어_1">
        <path d="M18.7,22 C18.5,22.6 18.3,23.3 18.3,24 C18.3,27.1 20.8,29.6 23.9,29.6 C27,29.6 29.5,27.1 29.5,24 C29.5,20.9 27,18.4 23.9,18.4 L12.7,5 C12.7,5 10.2,2.6 8.5,3.6 C7.1,4.7 7.9,6.6 8.8,7.9 L18.7,22 L18.7,22 Z M24,0 C23,0 22.2,0.1 21,0.2 L20.6,0.2 C18.8,0.2 17.4,1.6 17.4,3.4 C17.4,5.2 18.8,6.6 20.6,6.6 L20.7,6.6 L20.7,6.6 C21.7,6.4 22.8,6.4 23.9,6.4 C33.6,6.4 41.4,14.2 41.4,23.9 C41.4,33.6 33.7,41.5 24,41.5 C14.3,41.5 6.5,33.7 6.5,24 C6.5,21.3 7.1,18.7 8.2,16.4 L8.2,16.4 C8.4,16 8.4,15.6 8.4,15.1 C8.4,13.3 7,11.9 5.2,11.9 C4,11.9 3,12.5 2.5,13.4 L2.5,13.4 L2.5,13.5 C2.3,13.7 2.2,13.8 2.2,14 C0.8,17.1 0,20.4 0,24 C0,37.3 10.7,48 24,48 C37.3,48 48,37.3 48,24 C48,10.7 37.3,0 24,0 L24,0 Z" id="Shape"></path>
      </g>
    </g>
  </g>
</svg>
